shader_type fog;

void fog() {
	// Called once for every froxel that is touched by an axis-aligned bounding box
	// of the associated FogVolume. This means that froxels that just barely touch
	queue_free()
}
